!!!!SEGMENT: pl-cz--ii-16--006_szlagorski-walenty--talnce-galop.krn
!!!cenid: 18xx:1070
!!!COM: Szlagórski, Walenty
!!!COM-rismid: pe30111815
!!!CDT: 1801-1863/07/16
!!!CNT: Polish
!!!GTL: Tańce
!!!OTL: Galop
!!!PDT:
!!!AGN: Secular; Galop
!!!SMS-siglum: PL-CZ
!!!SMS-shelfmark: II-16
!!!SMS-shelfwork: 006 G
!!!SMS-variant:
!!!SMS-altvar:
!!!NIFC-rismid: 300001299
!!!system-decoration: [(s1,s2,s3)][(s4,s5,s6)]{(s7,s8)}[(s9,s10)]
!!!AIN: 1 bass 2 clars 2 cor 1 empty 1 flt 2 violn
!!!key:
**kern	**kern	**kern	**kern	**kern	**kern	**dynam	**kern	**dynam	**kern	**dynam	**kern	**dynam	**kern
*part9	*part8	*part7	*part7	*part6	*part5	*part5	*part4	*part4	*part3	*part3	*part2	*part2	*part1
*staff10	*staff9	*staff8	*staff7	*staff6	*staff5	*	*staff4	*	*staff3	*	*staff2	*	*staff1
*Ibass	*Ivioln	*Ivioln	*Iempty	*Iempty	*Icor	*	*Icor	*	*Iclars	*	*Iclars	*	*Iflt
*I"Basso	*I"Violino 2do.	*I"Violino 1mo	*	*I"Clarino in E	*I"Corno 2do in E	*	*I"Corno 1mo in E	*	*I"Clarinetto 2do in A.	*	*I"Clarinetto 1mo in A.	*	*I"Flauto
*I'B.	*I'V-no II	*I'V-no I	*	*I'Cl-no	*I'C. II	*	*I'C. I	*	*I'Cl. II	*	*I'Cl. I	*	*I'Fl.
*clefF4	*clefG2	*clefG2	*clefG2	*clefG2	*clefG2	*	*clefG2	*	*clefG2	*	*clefG2	*	*clefG2
*ITrd0c0	*	*	*	*ITrd-2c-4	*ITrd5c8	*	*ITrd5c8	*	*ITrd2c3	*	*ITrd2c3	*	*
*k[f#c#g#d#]	*k[f#c#g#d#]	*k[f#c#g#d#]	*k[f#c#g#d#]	*k[f#c#g#d#]	*k[f#c#g#d#]	*	*k[f#c#g#d#]	*	*k[f#c#g#d#]	*	*k[f#c#g#d#]	*	*k[f#c#g#d#]
*E:	*E:	*E:	*E:	*E:	*E:	*	*E:	*	*E:	*	*E:	*	*E:
*M2/4	*M2/4	*M2/4	*M2/4	*M2/4	*M2/4	*	*M2/4	*	*M2/4	*	*M2/4	*	*M2/4
=1	=1	=1	=1	=1	=1	=1	=1	=1	=1	=1	=1	=1	=1
!	!	!	!	!	!	!	!	!	!	!	!	!	!LO:TX:a:Bi:t=Galopade:rj
!	!	!	!	!LO:TX:a:Bi:t=in E.:rj	!LO:TX:a:Bi:t=in E.:rj	!	!LO:TX:a:Bi:t=in E:rj	!	!LO:TX:a:Bi:t=in A.:rj	!	!	!	!
!	!	!	!	!	!	!	!	!	!LO:TX:a:Bi:t=3	!	!LO:TX:a:Bi:t=3	!	!LO:TX:a:Bi:t=4
8E\	8r	8r	8b\L	8b\L	8G#/	.	8e\	.	1r	.	1r	.	0r
8r	8e 8G#/	8g#/	16ee\L	16ee\L	8r	.	8r	.	.	.	.	.	.
.	.	.	16b\JJ	16b\JJ	.	.	.	.	.	.	.	.	.
8E\	8r	8r	8g#/L	8g#/L	8G#/	.	8e\	.	.	.	.	.	.
8r	8e 8G#/	8g#/	16e/L	16e/L	8r	.	8r	.	.	.	.	.	.
.	.	.	16g#/JJ	16g#/JJ	.	.	.	.	.	.	.	.	.
=2	=2	=2	=2	=2	=2	=2	=2	=2	=2	=2	=2	=2	=2
*	*rep	*	*	*	*	*	*	*	*	*	*	*	*
8E\	8r	8r	8b\L	8b\L	8G#/	.	8e\	.	.	.	.	.	.
8r	8e 8G#/	8g#/	16ee\L	16ee\L	8r	.	8r	.	.	.	.	.	.
.	.	.	16b\JJ	16b\JJ	.	.	.	.	.	.	.	.	.
8E\	8r	8r	8g#/L	8g#/L	8G#/	.	8e\	.	.	.	.	.	.
8r	8e 8G#/	8g#/	16e/L	16e/L	8r	.	8r	.	.	.	.	.	.
.	.	.	16g#/JJ	16g#/JJ	.	.	.	.	.	.	.	.	.
*	*Xrep	*	*	*	*	*	*	*	*	*	*	*	*
=3	=3	=3	=3	=3	=3	=3	=3	=3	=3	=3	=3	=3	=3
*	*rep	*	*	*	*	*	*	*	*	*	*	*	*
8E\	8r	8r	8b\L	8b\L	8G#/	.	8e\	.	2r	.	2r	.	.
8r	8e 8G#/	8g#/	16ee\L	16ee\L	8r	.	8r	.	.	.	.	.	.
.	.	.	16b\JJ	16b\JJ	.	.	.	.	.	.	.	.	.
8E\	8r	8r	8g#/L	8g#/L	8G#/	.	8e\	.	.	.	.	.	.
8r	8e 8G#/	8g#/	16e/L	16e/L	8r	.	8r	.	.	.	.	.	.
.	.	.	16g#/JJ	16g#/JJ	.	.	.	.	.	.	.	.	.
*	*Xrep	*	*	*	*	*	*	*	*	*	*	*	*
=4	=4	=4	=4	=4	=4	=4	=4	=4	=4	=4	=4	=4	=4
8BB/L	8d#/L	8f#/L	8b\L	8b/L	8B\L	.	8f#\L	.	8dd#\L	.	8ff#\L	.	.
8E/J	8e/J	8g#/J	8b\	8b/J	8e\J	.	8g#\J	.	8ee\J	.	8gg#\J	.	.
4BB/	8d#/	8f#/	8b\J	4b/	8B/	.	8f#\	.	8dd#\	.	8ff#\	.	.
.	8r	8r	8r	.	8r	.	8r	.	8r	.	8r	.	.
=5!|:	=5!|:	=5!|:	=5!|:	=5!|:	=5!|:	=5!|:	=5!|:	=5!|:	=5!|:	=5!|:	=5!|:	=5!|:	=5!|:
!	!	!	!	!LO:TX:a:Bi:t=2	!LO:TX:a:Bi:t=2	!	!LO:TX:a:Bi:t=2	!	!	!	!	!	!
8E\	8r	8r	8bb\L	1r	1r	.	1r	.	4g#\	.	(>8b\L	.	(>8bb\L
8r	8e 8G#/	8g#/	8ggg#\	.	.	.	.	.	.	.	8gg#\)	.	8ggg#\)
8E\	8r	8r	8fff#\	.	.	.	.	.	4r	.	8ff#'>\	.	8fff#'>\
8r	8e 8G#/	8g#/	8eee\J	.	.	.	.	.	.	.	8ee'>\J	.	8eee'>\J
!	!	!LO:LB:g=original	!LO:LB:g=original	!	!	!	!	!	!	!	!	!	!
=6	=6	=6	=6	=6	=6	=6	=6	=6	=6	=6	=6	=6	=6
*	*rep	*	*	*	*	*	*	*	*	*	*	*	*
!	!	!LO:TX:a:t=P:problem=w źródle 6 taktów wytartych i przepisanych na nowo [poprawki skryptora]	!	!	!	!	!	!	!	!	!	!	!
8E\	8r	8r	8eee\L	.	.	.	.	.	8r	.	8ee\L	.	8eee\L
8r	8e 8G#/	8g#/	8bb\J	.	.	.	.	.	8g#\	.	8b\	.	8bb\J
.	.	.	8qddd#/	.	.	.	.	.	.	.	8qdd#/	.	8qddd#/
8E\	8r	8r	8ccc#\L	.	.	.	.	.	8r	.	8cc#\	.	(>8ccc#\L
8r	8e 8G#/	8g#/	8bb\J	.	.	.	.	.	8g#\	.	8b\J	.	8bb\J)
*	*Xrep	*	*	*	*	*	*	*	*	*	*	*	*
!LO:LB:g=original	!LO:LB:g=original	!	!	!	!	!	!	!	!	!	!	!	!
=7	=7	=7	=7	=7	=7	=7	=7	=7	=7	=7	=7	=7	=7
.	.	32qqdd#/	8qddd#/	.	.	.	.	.	.	.	.	.	8qddd#/
8BB/	8r	8cc#\L	8ccc#\L	8b/	8B/	.	8f#\	.	8r	.	8r	.	(>8ccc#\L
!	!	!	!	!	!	!	!	!	!	!	!LO:TX:a:t=P:problem=w źródle kasownik przed pauzą	!	!
8r	8a 8B/	8b\J	8bb\J	8r	8r	.	8r	.	8f#\	.	8an\	.	8bb\J)
.	.	32qqdd#/	8qddd#/	.	.	.	.	.	.	.	.	.	8qddd#/
8B\	8r	8cc#\L	8ccc#\L	8b/	8B/	.	8f#\	.	8r	.	8r	.	(>8ccc#\L
8r	8a 8B/	8b\J	8bb\J	8r	8r	.	8r	.	8f#\	.	8a\	.	8bb\J)
!	!	!	!	!	!	!	!	!	!	!	!	!	!LO:LB:g=original
=8	=8	=8	=8	=8	=8	=8	=8	=8	=8	=8	=8	=8	=8
*	*rep	*	*	*	*	*	*	*	*	*	*	*	*
8BB/	8r	8b\L	8bb\L	8b/L	8B/L	.	8f#\L	.	8r	.	8r	.	8bb\L
8r	8a 8B/	16dd#\L	16ddd#\L	8b/J	8B/J	.	8f#\J	.	8f#\	.	8a\	.	16ddd#\L
.	.	16ff#\JJ	16fff#\JJ	.	.	.	.	.	.	.	.	.	16fff#\JJ
!	!	!LO:TX:t=P:problem=mixed beam	!	!	!	!	!	!	!	!	!	!	!
8BB/	8r	8bb\L	8bb\L	4b/	4B/	.	4f#\	.	8r	.	8r	.	8bb\L
8r	8a 8B/	8b/J	8bb\J	.	.	.	.	.	8f#\	.	8a\	.	8bb\J
*	*Xrep	*	*	*	*	*	*	*	*	*	*	*	*
!	!	!	!	!LO:LB:g=original	!	!	!LO:LB:g=original	!	!	!	!LO:LB:g=original	!	!
=9	=9	=9	=9	=9	=9	=9	=9	=9	=9	=9	=9	=9	=9
!	!	!	!	!LO:TX:a:Bi:t=2	!LO:TX:a:Bi:t=2	!	!LO:TX:a:Bi:t=2	!	!	!	!	!	!
8E\	8r	8r	(>8bb\L	1r	1r	.	1r	.	4g#\	.	(>8b\L	.	(>8bb\L
8r	8e 8B/	8g#/	8ggg#\)	.	.	.	.	.	.	.	8gg#\)	.	8ggg#\)
8E\	8r	8r	8fff#'>\	.	.	.	.	.	4r	.	8ff#'>\	.	8fff#'>\
8r	8e 8B/	8g#/	8eee'>\J	.	.	.	.	.	.	.	8ee'>\J	.	8eee'>\J
=10	=10	=10	=10	=10	=10	=10	=10	=10	=10	=10	=10	=10	=10
*	*rep	*	*	*	*	*	*	*	*	*	*	*	*
8E\	8r	8r	8eee\L	.	.	.	.	.	4g#\	.	8ee\L	.	(>8eee\L
8r	8e 8B/	8g#/	8bb\J	.	.	.	.	.	.	.	8b\	.	8bb\J)
.	.	.	8qddd#/	.	.	.	.	.	.	.	8qdd#/	.	8qddd#/
8E\	8r	8r	8ccc#\L	.	.	.	.	.	4r	.	8cc#\	.	(>8ccc#\L
8r	8e 8B/	8g#/	8bb\J	.	.	.	.	.	.	.	8b\J	.	8bb\J)
*	*Xrep	*	*	*	*	*	*	*	*	*	*	*	*
=11	=11	=11	=11	=11	=11	=11	=11	=11	=11	=11	=11	=11	=11
.	.	32qqdd#/	8qddd#/	.	.	.	.	.	.	.	.	.	8qddd#/
8BB/	8r	8cc#\L	8ccc#\L	8b/	8B/	.	8f#\	.	8r	.	8r	.	(>8ccc#\L
8r	8a 8B/	8b\J	8bb\J	8r	8r	.	8r	.	8f#\	.	8an\	.	8bb\J)
8BB/	8r	8bb\L	8fff#\L	8b/	8B/	.	8f#\	.	8r	.	8r	.	8fff#\L
8r	8a 8B/	8dd#\J	8bb\J	8r	8r	.	8r	.	8f#\	.	8a\	.	8bb\J
!	!	!	!	!	!LO:LB:g=original	!	!	!	!LO:LB:g=original	!	!	!	!
=12	=12	=12	=12	=12	=12	=12	=12	=12	=12	=12	=12	=12	=12
8E\L	8g#L 8B/	8ee\L	8ee\L	8e/L	8G#/L	.	8e\L	.	8e\L	.	8g#\L	.	8ee'>\L
8E\J	8g# 8B/	16gg#\L	16gg#\L	8e/J	8G#/J	.	8e\J	.	8e\J	.	8g#\J	.	(>16gg#\L
.	.	16bb\JJ	16bb\JJ	.	.	.	.	.	.	.	.	.	16bb\JJ)
4E\	8g#J 8B/	4eee\	4eee\	4e/	8G#/	.	8e\	.	8e\	.	8g#\	.	8eee\
.	8r	.	.	.	8r	.	8r	.	8r	.	8r	.	8r
!	!	!LO:LB:g=original	!LO:LB:g=original	!	!	!	!	!	!	!	!	!	!
=13:|!|:	=13:|!|:	=13:|!|:	=13:|!|:	=13:|!|:	=13:|!|:	=13:|!|:	=13:|!|:	=13:|!|:	=13:|!|:	=13:|!|:	=13:|!|:	=13:|!|:	=13:|!|:
!	!	!	!	!LO:TX:a:Bi:t=2	!	!	!	!	!LO:TX:a:Bi:t=2	!	!	!	!
!	!	!	!	!	!	!LO:DY:b:rj	!	!LO:DY:b:rj	!	!	!	!	!
8BB/	8r	8r	8bb\L	1r	4B/	p	4f#\	p	1r	p	8b'>\L	p	8bb'>\L
*	*	*tremolo	*	*	*	*	*	*	*	*	*	*	*
8r	8f#/L	8a 8B/L	(>16ddd#\L	.	.	.	.	.	.	.	(>16cc#\L	.	(>16ddd#\L
.	.	.	16bb\JJ)	.	.	.	.	.	.	.	16b\JJ)	.	16bb\JJ)
8BB/	8f#/	8a 8B/	8aa\L	.	4B/	.	4f#\	.	.	.	8a\L	.	8aa'>\L
8r	8f#/J	8a 8B/J	8ff#\J	.	.	.	.	.	.	.	8f#\J	.	8ff#'>\J
*	*	*Xtremolo	*	*	*	*	*	*	*	*	*	*	*
!	!	!	!	!	!	!	!	!	!	!	!	!	!LO:LB:g=original
=14	=14	=14	=14	=14	=14	=14	=14	=14	=14	=14	=14	=14	=14
8E\	8r	8r	8ee\L	.	4G#/	.	4e\	.	.	.	8e\L	.	8ee'>\L
*	*	*tremolo	*	*	*	*	*	*	*	*	*	*	*
8r	8e/L	8g# 8B/L	16gg#\L	.	.	.	.	.	.	.	(>16g#\L	.	(>16gg#\L
.	.	.	16bb\JJ	.	.	.	.	.	.	.	16b\JJ)	.	16bb\JJ)
8E\	8e/	8g# 8B/	4eee\	.	4G#/	.	4e\	.	.	.	4ee\	.	4eee\
8r	8e/J	8g# 8B/J	.	.	.	.	.	.	.	.	.	.	.
*	*	*Xtremolo	*	*	*	*	*	*	*	*	*	*	*
!LO:LB:g=original	!LO:LB:g=original	!	!	!	!	!	!	!	!	!	!LO:LB:g=original	!	!
=15	=15	=15	=15	=15	=15	=15	=15	=15	=15	=15	=15	=15	=15
!	!	!	!	!	!LO:TX:a:Bi:t=2	!	!LO:TX:a:Bi:t=2	!	!	!	!	!	!
8BB/	8r	8r	8ddd#'>\L	8b/	1r	.	1r	.	4a\	.	8dd#\L	.	8ddd#'>\L
8r	8f#/	8a 8B/	(>16eee\L	8r	.	.	.	.	.	.	(>16ee\L	.	(>16eee\L
.	.	.	16fff#\JJ)	.	.	.	.	.	.	.	16ff#\JJ)	.	16fff#\JJ)
8BB/	8r	8r	8aa'>\L	8b/	.	.	.	.	4f#\	.	8a\L	.	8aa'>\L
8r	8f#/	8a 8B/	(>16bb\L	8r	.	.	.	.	.	.	(>16b\L	.	(>16bb\L
.	.	.	16ccc#\JJ)	.	.	.	.	.	.	.	16cc#\JJ)	.	16ccc#\JJ)
=16	=16	=16	=16	=16	=16	=16	=16	=16	=16	=16	=16	=16	=16
8E\	8r	8r	8ccc#\L	8e/L	.	.	.	.	4e\	.	8cc#'>\L	.	8ccc#\L
8r	8e/	8g# 8B/	8bb\J	8e/J	.	.	.	.	.	.	8b'>\J	.	8bb\J
8E\	8r	8r	4gg#\	4e/	.	.	.	.	4e\	.	4g#\	.	4gg#\
8r	8e/	8g# 8B/	.	.	.	.	.	.	.	.	.	.	.
=17	=17	=17	=17	=17	=17	=17	=17	=17	=17	=17	=17	=17	=17
!	!	!	!	!LO:TX:a:t=P:problem=pominięty fragment.	!	!	!	!	!LO:TX:a:Bi:t=1	!	!	!	!
8BB/	8r	8r	8bb\L	2ryy	4B/	.	4f#\	.	2r	.	8b\L	.	8bb'>\L
*	*	*tremolo	*	*	*	*	*	*	*	*	*	*	*
8r	8f#/L	8a 8B/L	16ccc#\L	.	.	.	.	.	.	.	16cc#\L	.	(>16ccc#\L
.	.	.	16bb\JJ	.	.	.	.	.	.	.	16b\JJ	.	16bb\JJ)
8BB/	8f#/	8a 8B/	8aa\L	.	4B/	.	4f#\	.	.	.	8a\L	.	8aa'>\L
8r	8f#/J	8a 8B/J	8ff#\J	.	.	.	.	.	.	.	8f#\J	.	8ff#'>\J
*	*	*Xtremolo	*	*	*	*	*	*	*	*	*	*	*
=18	=18	=18	=18	=18	=18	=18	=18	=18	=18	=18	=18	=18	=18
8E\	8r	8r	8ee\L	2ryy	4G#/	.	4e\	.	4r	.	8e\L	.	8ee'>\L
8r	8e/	8g# 8B/	16gg#\L	.	.	.	.	.	.	.	(>16g#\L	.	(>16gg#\L
.	.	.	16bb\JJ	.	.	.	.	.	.	.	16b\JJ	.	16bb\JJ)
8C#/	8r	8r	8eee\L	.	4e\	.	4g#\	.	4c#/	.	8ee\L)	.	8eee\L
8r	8e 8c#/	8g#/	8ddd#\J	.	.	.	.	.	.	.	8dd#\J	.	8ddd#\J
!	!	!LO:LB:g=original	!LO:LB:g=original	!	!	!	!	!	!	!	!	!	!
=19	=19	=19	=19	=19	=19	=19	=19	=19	=19	=19	=19	=19	=19
8F#\	8r	8r	8ccc#\L	2ryy	4e\	.	4f#\	.	4e/	.	8cc#\L	.	8ccc#'>\L
8r	8e 8c#/	8a#X/	16bb\L	.	.	.	.	.	.	.	16b\L	.	(>16bb\L
.	.	.	16ccc#\JJ	.	.	.	.	.	.	.	16cc#\JJ	.	16ccc#\JJ)
8F#\	8r	8r	8ddd#\L	.	4e\	.	4f#\	.	4e/	.	8dd#\L	.	8ddd#'>\L
8r	8e 8c#/	8a#/	8ccc#\J	.	.	.	.	.	.	.	8cc#\J	.	8ccc#'>\J
!	!	!	!	!	!	!	!	!	!	!	!	!	!LO:LB:g=original
=20	=20	=20	=20	=20	=20	=20	=20	=20	=20	=20	=20	=20	=20
!LO:TX:t=P:problem=mixed beam	!	!	!	!	!	!	!	!	!	!	!	!	!
!	!	!LO:TX:t=P:problem=mixed beam	!	!	!	!	!	!	!	!	!	!	!
8BB/L	8d#L 8B/	8b/L	8bb\L	8b/L	8B/L	.	8f#\L	.	8d#/L	.	8b\L	.	8bb\L
8B\J	8d# 8B/	8bb\J	8bb\J	8b/J	8B/J	.	8f#\J	.	8d#/J	.	8b\J	.	8bb\
8BB/	8d#J 8B/	4b\	4bb\	8b/	8B/	.	8f#\	.	8d#/	.	8b\	.	8bb\J
8r	8r	.	.	8r	8r	.	8r	.	8r	.	8r	.	8r
!	!	!	!	!	!	!	!LO:LB:g=original	!	!	!	!LO:LB:g=original	!	!
=21	=21	=21	=21	=21	=21	=21	=21	=21	=21	=21	=21	=21	=21
!	!	!	!	!LO:TX:a:Bi:t=2	!LO:TX:a:Bi:t=2	!	!LO:TX:a:Bi:t=2	!	!LO:TX:a:Bi:t=2	!	!	!	!
8E\	8r	8r	(>8bb\L	1r	1r	.	1r	.	1r	.	(>8b\L	.	(>8bb\L
8r	8e 8B/	8g#/	8ggg#\)	.	.	.	.	.	.	.	8gg#\)	.	8ggg#\)
8E\	8r	8r	8fff#\	.	.	.	.	.	.	.	8ff#'>\	.	8fff#'>\
8r	8e 8B/	8g#/	8eee\J	.	.	.	.	.	.	.	8ee'>\J	.	8eee'>\J
=22	=22	=22	=22	=22	=22	=22	=22	=22	=22	=22	=22	=22	=22
8E\	8r	8r	8eee\L	.	.	.	.	.	.	.	8ee\L	.	8eee\L
8r	8e 8B/	8g#/	8bb\J	.	.	.	.	.	.	.	8b\	.	8bb\J
.	.	.	8qddd#/	.	.	.	.	.	.	.	8qdd#/	.	8qddd#/
8E\	8r	8r	8ccc#\L	.	.	.	.	.	.	.	8cc#\	.	(>8ccc#\L
8r	8e 8B/	8g#/	8bb\J	.	.	.	.	.	.	.	8b\J	.	8bb\J)
!LO:LB:g=original	!LO:LB:g=original	!	!	!	!	!	!	!	!	!	!	!	!
=23	=23	=23	=23	=23	=23	=23	=23	=23	=23	=23	=23	=23	=23
.	.	32qqdd#/	8qddd#/	.	.	.	.	.	.	.	.	.	8qddd#/
8BB/	8r	8cc#\L	8ccc#\L	8b/	8B/	.	8f#\	.	4a\	.	8r	.	(>8ccc#\L
8r	8a 8B/	8b\J	8bb\J	8r	8r	.	8r	.	.	.	8an\	.	8bb\J)
.	.	32qqdd#/	8qddd#/	.	.	.	.	.	.	.	.	.	8qddd#/
8B\	8r	8cc#\L	8ccc#\L	8b/	8B/	.	8f#\	.	4f#\	.	8r	.	(>8ccc#\L
8r	8a 8B/	8b\J	8bb\J	8r	8r	.	8r	.	.	.	8a\	.	8bb\J)
=24	=24	=24	=24	=24	=24	=24	=24	=24	=24	=24	=24	=24	=24
8BB/	8r	8b\L	8bb\L	8b/L	8B/L	.	8f#\L	.	4e\	.	8r	.	8bb\L
8r	8a 8B/	16dd#\L	16ddd#\L	8b/J	8B/J	.	8f#\J	.	.	.	8a\	.	16ddd#\L
.	.	16ff#\JJ	16fff#\JJ	.	.	.	.	.	.	.	.	.	16fff#\JJ
!	!	!LO:TX:a:t=P:problem=mixed beam	!	!	!	!	!	!	!	!	!	!	!
8BB/	8r	8bb\L	8bb\L	4b/	4B/	.	4f#\	.	4e\	.	8r	.	8bb\L
8r	8a 8B/	8b/J	8bb\J	.	.	.	.	.	.	.	8a\	.	8bb\J
!	!	!LO:LB:g=original	!LO:LB:g=original	!LO:LB:g=original	!LO:LB:g=original	!	!	!	!	!	!	!	!
=25	=25	=25	=25	=25	=25	=25	=25	=25	=25	=25	=25	=25	=25
!	!	!	!	!LO:TX:a:Bi:t=2	!LO:TX:a:Bi:t=2	!	!LO:TX:a:Bi:t=2	!	!LO:TX:a:Bi:t=1	!	!	!	!
8E\	8r	8r	8bb\L	1r	1r	.	1r	.	2r	.	(>8b\L	.	8bb\L
8r	8e 8B/	8g#/	8ggg#\	.	.	.	.	.	.	.	8gg#\)	.	8ggg#\
8E\	8r	8r	8fff#\	.	.	.	.	.	.	.	8ff#'>\	.	8fff#\
8r	8e 8B/	8g#/	8eee\J	.	.	.	.	.	.	.	8ee'>\J	.	8eee\J
!	!	!	!	!	!	!	!	!	!LO:LB:g=original	!	!	!	!LO:LB:g=original
=26	=26	=26	=26	=26	=26	=26	=26	=26	=26	=26	=26	=26	=26
*	*rep	*	*	*	*	*	*	*	*	*	*	*	*
8E\	8r	8r	8eee\L	.	.	.	.	.	4r	.	8ee\L	.	8eee\L
8r	8e 8B/	8g#/	8bb\J	.	.	.	.	.	.	.	8b\	.	8bb\J
.	.	.	8qddd#/	.	.	.	.	.	.	.	8qdd#/	.	8qddd#/
8E\	8r	8r	8ccc#\L	.	.	.	.	.	4c#/	.	8cc#\	.	(>8ccc#\L
8r	8e 8B/	8g#/	8bb\J	.	.	.	.	.	.	.	8b\J	.	8bb\J)
*	*Xrep	*	*	*	*	*	*	*	*	*	*	*	*
=27	=27	=27	=27	=27	=27	=27	=27	=27	=27	=27	=27	=27	=27
.	.	32qqdd#/	8qddd#/	.	.	.	.	.	.	.	.	.	8qddd#/
8BB/	8r	(>8cc#\L	(>8ccc#\L	8b/	8B/	.	8f#\	.	4e/	.	8r	.	(>8ccc#\L
8r	8a 8B/	8b\J)	8bb\J)	8r	8r	.	8r	.	.	.	8a\	.	8bb\J)
8BB/	8r	8bb\L	8fff#\L	8b/	8B/	.	8f#\	.	4e/	.	8r	.	8fff#\L
8r	8a 8B/	8dd#\J	8bb\J	8r	8r	.	8r	.	.	.	8a\	.	8bb\J
!	!	!	!	!	!	!	!	!	!	!	!LO:LB:g=original	!	!
=28	=28	=28	=28	=28	=28	=28	=28	=28	=28	=28	=28	=28	=28
8E\L	8g#L 8B/	8ee\L	8ee\L	8e/L	8G#/L	.	8e\L	.	8d#/L	.	8g#\L	.	8ee\L
8E\J	8g# 8B/	16gg#\L	16gg#\L	8e/J	8G#/J	.	8e\J	.	8d#/J	.	8g#\J	.	16gg#\L
.	.	16bb\JJ	16bb\JJ	.	.	.	.	.	.	.	.	.	16bb\JJ
4E\	8g#J 8B/	8eee\	8eee\	4e/	8G#/	.	8e\	.	8d#/	.	8g#\	.	8eee\
!	!	!LO:TX:a:t=P:problem=w źródle brakująca pauza (patrząc na dopasowanie do innych głosów)	!LO:TX:a:t=P:problem=w źródle brakująca pauza (patrząc na dopasowanie do innych głosów)	!	!	!	!	!	!	!	!	!	!
!	!	!	!	!	!	!	!	!	!LO:TX:a:t=P:problem=w źródle brakująca pauza (patrząc na dopasowanie do innych głosów)	!	!	!	!
.	8r	8ryy	8ryy	.	8r	.	8r	.	8ryy	.	8r	.	8r
*	*	*	*	*	*	*	*	*	*	*	*	*	*k[cancel]
=29:|!|:	=29:|!|:	=29:|!|:	=29:|!|:	=29:|!|:	=29:|!|:	=29:|!|:	=29:|!|:	=29:|!|:	=29:|!|:	=29:|!|:	=29:|!|:	=29:|!|:	=29:|!|:
*	*	*	*	*	*	*	*	*	*k[f#c#g#]	*	*	*	*k[f#c#g#]
!!LO:TX:a:t=P:w źródle zapis repetycji dla wszystkich głosów taki jak zapisany w kodzie:problem
!	!	!	!	!	!	!	!	!	!	!	!	!	!LO:TX:a:t=P:problem=w źródle zmiana tonacji zapisana wyłącznie jednym kasownikiem 'dn'
8ryy	8ryy	8r	16cc#\LL	8ryy	8ryy	.	8ryy	.	8r	.	8ryy	.	16ccc#\LL
.	.	.	16ddn\JJ	.	.	.	.	.	.	.	.	.	16dddn\JJ
!	!	!LO:LB:g=original	!LO:LB:g=original	!	!	!	!	!	!	!	!	!	!
=	=	=	=	=	=	=	=	=	=	=	=	=	=
*k[f#c#g#]	*k[f#c#g#]	*	*k[f#c#g#]	*	*	*	*	*	*	*	*k[f#c#g#]	*	*
!LO:TX:a:t=P:problem=w źródle zmiana tonacji zapisana wyłącznie jednym kasownikiem 'dn'	!LO:TX:a:t=P:problem=w źródle zmiana tonacji zapisana wyłącznie jednym kasownikiem 'dn'	!	!	!	!	!	!	!	!	!	!	!	!
!	!	!	!LO:TX:a:t=P:problem=w źródle niezapisana zmiana tonacji dla Violino 1mo	!	!	!	!	!	!	!	!	!	!
!	!	!	!	!LO:TX:a:Bi:t=8	!LO:TX:a:Bi:t=8	!	!LO:TX:a:Bi:t=8	!	!	!	!	!	!
4E\	8r	2ryy	8cc#\L	0r	0r	.	0r	.	8r	p	8r	.	8ccc#'>\L
.	8eL 8dn/	.	8b\J	.	.	.	.	.	8d/L	.	8g#\L	.	8bb'>\J
4r	8e 8d/	.	8b\L	.	.	.	.	.	8d/	.	8g#\	.	(>8bb\L
.	8eJ 8d/	.	8cc#\J	.	.	.	.	.	8d/J	.	8g#\J	.	8ccc#\J)
=30	=30	=30	=30	=30	=30	=30	=30	=30	=30	=30	=30	=30	=30
4AA/	8r	2ryy	8b/L	.	.	.	.	.	8r	.	8r	.	8bb'>\L
.	8eL 8c#/	.	8a/J	.	.	.	.	.	8c#/L	.	8a\L	.	8aa'>\J
4r	8e 8c#/	.	(<8a/L	.	.	.	.	.	8c#/	.	8a\	.	(>8aa\L
.	8eJ 8c#/	.	8b/J)	.	.	.	.	.	8c#/J	.	8a\J	.	8bb\J)
!LO:LB:g=original	!LO:LB:g=original	!	!	!	!	!	!	!	!	!	!	!	!LO:LB:g=original
=31	=31	=31	=31	=31	=31	=31	=31	=31	=31	=31	=31	=31	=31
4E\	8r	2ryy	8a/L	.	.	.	.	.	8r	.	8r	.	8aa\L
.	8eL 8dn/	.	8g#/	.	.	.	.	.	8d/L	.	8g#\L	.	8gg#\
4r	8e 8d/	.	8f#/	.	.	.	.	.	8d/	.	8g#\	.	8ff#\
.	8eJ 8d/	.	8g#/J	.	.	.	.	.	8d/J	.	8g#\J	.	8gg#\J
=32	=32	=32	=32	=32	=32	=32	=32	=32	=32	=32	=32	=32	=32
!	!	!	!LO:TX:t=P:problem=mixed beam	!	!	!	!	!	!	!	!	!	!
4AA/	8r	2ryy	(>16a/LL	.	.	.	.	.	8r	.	8r	.	(>16aa\LL
.	.	.	16aa\)	.	.	.	.	.	.	.	.	.	16aaa\)
.	8eL 8c#/	.	16gg#'>\	.	.	.	.	.	8c#/L	.	8a\L	.	16ggg#'>\
.	.	.	16ff#'>\JJ	.	.	.	.	.	.	.	.	.	16fff#'>\JJ
4r	8e 8c#/	.	8ee'>\L	.	.	.	.	.	8c#/	.	8a\	.	8eee'>\L
.	8eJ 8c#/	.	(>16cc#\L	.	.	.	.	.	8c#/J	.	8a\J	.	(>16ccc#\L
.	.	.	16dd\JJ)	.	.	.	.	.	.	.	.	.	16ddd\JJ)
=33	=33	=33	=33	=33	=33	=33	=33	=33	=33	=33	=33	=33	=33
8E\	8r	2ryy	8cc#'>\L	0r	0r	.	0r	.	8r	.	8r	.	8ccc#'>\L
8r	8e 8dn/	.	8b'>\J	.	.	.	.	.	8d/L	.	8g#\L	.	8bb'>\J
8E\	8r	.	(>8b\L	.	.	.	.	.	8d/	.	8g#\	.	(>8bb\L
8r	8e 8d/	.	8cc#\J)	.	.	.	.	.	8d/J	.	8g#\J	.	8ccc#\J)
=34	=34	=34	=34	=34	=34	=34	=34	=34	=34	=34	=34	=34	=34
8AA/	8r	2ryy	8b'</L	.	.	.	.	.	8r	.	8r	.	8bb'>\L
8r	8e 8c#/	.	8a'</J	.	.	.	.	.	8c#/L	.	8a\L	.	8aa'>\J
8A\	8r	.	(<8a/L	.	.	.	.	.	8c#/	.	8a\	.	(>8aa\L
8r	8e 8c#/	.	8b/J)	.	.	.	.	.	8c#/J	.	8a\J	.	8bb\J)
!	!	!	!LO:LB:g=original	!	!	!	!	!	!	!	!	!	!
=35	=35	=35	=35	=35	=35	=35	=35	=35	=35	=35	=35	=35	=35
8E\	8r	2ryy	8a/L	.	.	.	.	.	8r	.	8r	.	8aa\L
8r	8e 8dn/	.	8g#/	.	.	.	.	.	8d/L	.	8g#\L	.	8gg#\
8E\	8r	.	8f#/	.	.	.	.	.	8d/	.	8g#\	.	8ff#\
8r	8e 8d/	.	8g#/J	.	.	.	.	.	8d/J	.	8g#\J	.	8gg#\J
!	!	!	!	!	!	!	!	!	!	!	!LO:LB:g=original	!	!
=36	=36	=36	=36	=36	=36	=36	=36	=36	=36	=36	=36	=36	=36
!LO:TX:t=P:problem=mixed beam	!	!	!	!	!	!	!	!	!	!	!	!	!
8AA/L	8eL 8c#/	2ryy	8a/L	.	.	.	.	.	8c#/L	.	8a\L	.	8aa'>\L
8A\J	8e 8c#/	.	16cc#/L	.	.	.	.	.	8c#/J	.	8a\J	.	(>16ccc#\L
.	.	.	16ee/JJ	.	.	.	.	.	.	.	.	.	16eee\JJ)
8AA/	8eJ 8c#/	.	8aa\	.	.	.	.	.	8c#/	.	4a\	.	8aaa\
8r	8r	.	8ryy	.	.	.	.	.	8ryy	.	.	.	8ryy
==:|!	==:|!	==:|!	==:|!	==:|!	==:|!	==:|!	==:|!	==:|!	==:|!	==:|!	==:|!	==:|!	==:|!
*-	*-	*-	*-	*-	*-	*-	*-	*-	*-	*-	*-	*-	*-
!!title: @{OTL};
!!!RDF**kern: > = above
!!!RDF**kern: < = below
!!!RDF**kern: | = vertical stroke
!!!RDF**kern: N = linked
!!!RDF**kern: i = editorial accidental
!!!ENC: Andrzej Gręziak
!!!END: 2020-10-03
!!!EED: Wojciech Jakubiak-Danek
!!!EEV: 2021-11-01
!!!URL-scan: http://repozytorium.nifc.pl/skany/pl-cz-nut--ii-16
!!!ONB-nifc: UWAGA: zbiór zawiera Walce nr 1-5, Galop, Mazury nr 1-4
